X:1
T:La Vista, CMD
T:La Vista, CMD
T:Robert Lowry, 1884
T:Public Domain Courtesy of the Cyber Hymnal™
C:Robert Lowry, 1884
Z:Public Domain
Z:Courtesy of the Cyber Hymnal™
%%score ( 1 2 ) ( 3 4 )
L:1/8
Q:1/4=82
M:2/4
K:Bb
V:1 treble 
V:2 treble 
V:3 bass 
V:4 bass 
V:1
 [DF] | [DF][DB] [DB]>[Ec] | [DB][CA] [CA]>[DB] | [CA][EG] [CE]>[EG] | [DF]3 [DF] | %5
 [DF][FB] [FB]>[Fc] | [FB][FA] [FA]>[FA] | [=Ec][EG] [FA]>[EG] | F3 F | [Fc][F=B] [Fd]>[Ec] | %10
 [DB][EG] [DF]>[DF] | [C=E][EG] [Ec]>[GB] | [FA]3 [EF] | [DF][DB] [Fd]>[DB] | [FA][EG] [GB]>[EG] | %15
 [DF][DB] [Fd]>[Ec] | [DB]3 |] %17
V:2
 x | x4 | x4 | x4 | x4 | x4 | x4 | x4 | F3 F | x4 | x4 | x4 | x4 | x4 | x4 | x4 | x3 |] %17
V:3
 [B,,B,] | [B,,B,][B,,F,] [B,,F,]>[B,,F,] | F,F, F,>F, | F,F, [F,A,]>[F,A,] | [B,,B,]3 [B,,B,] | %5
 [B,,B,][B,,D] [B,,D]>[B,,E] | [F,D][F,C] [F,C]>[F,C] | [C,C][C,C] [C,C]>[C,C] | [F,A,]3 [F,A,] | %9
 [F,A,][F,^G,] [F,A,]>[F,A,] | [B,,B,][B,,B,] [B,,B,]>[B,,B,] | [C,G,][C,C] [C,C]>[C,C] | %12
 [F,C]3 [F,A,] | [B,,B,][B,,B,] [B,,B,]>[B,,B,] | [E,B,][E,B,] [E,B,]>[E,B,] | %15
 [F,B,][F,B,] [F,B,]>[F,A,] | [B,,B,]3 |] %17
V:4
 x | x4 | F,F, F,>F, | F,F, x2 | x4 | x4 | x4 | x4 | x4 | x4 | x4 | x4 | x4 | x4 | x4 | x4 | x3 |] %17

